X: 200
T:Pretty Saro
M:3/4
L:1/8
Q:1/4=90
K:D
DE|G2 DE DE|G2 A2 AG |E2 D2 GG|D4
DE|G2 D2 DE|G2 A2 dd |B2 G2 B2|A4
G2|A2 d2 dB|A2 G2 A>B|AA G2 E2|D4
D2|E2 A3  B|A2 G2 AG |E2 D2 G2|D4|]

though it could be argued that both are really in G lydian/major/
mixolydian pentatonic but end on the fifth.

This might be a better example, in that the seventh is not essential
to the tune, only occurring as a passing note on descending phrases:

